resources/icons/phone.svg

<?xml version="1.0" ?>
<!-- Uploaded to: SVG Repo, www.svgrepo.com, Generator: SVG Repo Mixer Tools -->
<svg width="800px" height="800px" viewBox="0 0 12 12" enable-background="new 0 0 12 12" id="Слой_1" version="1.1" xml:space="preserve" xmlns="http://www.w3.org/2000/svg" xmlns:xlink="http://www.w3.org/1999/xlink">
<g>
<path d="M6.2478638,8.4810181C6.1535645,8.5752563,6.0301514,8.6223755,5.9067383,8.6223755   S5.6599121,8.5752563,5.5656128,8.4810181L3.5189819,6.4343872C3.4247437,6.3400879,3.3775635,6.2166748,3.3775635,6.0932617   s0.0471802-0.2468872,0.1414185-0.3411255l1.0233154-1.0233154L1.8134766,2l-0.682251,0.6821899   c-1.5083008,1.5083618-1.5083008,3.9494019,0,5.4577026l2.7288818,2.7288208   c0.3770752,0.3770752,0.812439,0.6599121,1.2769775,0.8484497C5.6015625,11.9057007,6.0952759,12,6.5889282,12   c0.4937134,0,0.9873657-0.0942993,1.4519043-0.2828369s0.8999023-0.4713745,1.2769775-0.8484497L10,10.1865234L7.2711792,7.4577026   L6.2478638,8.4810181z" fill="#1D1D1B"/>
<path d="M6.5,1H6v1h0.5C8.4296875,2,10,3.5703125,10,5.5V6h1V5.5C11,3.0185547,8.9814453,1,6.5,1z" fill="#1D1D1B"/>
<path d="M8,5.5V6h1V5.5C9,4.121582,7.878418,3,6.5,3H6v1h0.5C7.3271484,4,8,4.6728516,8,5.5z" fill="#1D1D1B"/>
</g>
</svg>

<?xml version="1.0" encoding="UTF-8" standalone="no"?>
<!-- Created with Inkscape (http://www.inkscape.org/) -->

<svg
   width="210mm"
   height="297mm"
   viewBox="0 0 210 297"
   version="1.1"
   id="svg1"
   xml:space="preserve"
   inkscape:version="1.4.2 (2aeb623e1d, 2025-05-12)"
   sodipodi:docname="phone.svg"
   xmlns:inkscape="http://www.inkscape.org/namespaces/inkscape"
   xmlns:sodipodi="http://sodipodi.sourceforge.net/DTD/sodipodi-0.dtd"
   xmlns="http://www.w3.org/2000/svg"
   xmlns:svg="http://www.w3.org/2000/svg"><sodipodi:namedview
     id="namedview1"
     pagecolor="#ffffff"
     bordercolor="#000000"
     borderopacity="0.25"
     inkscape:showpageshadow="2"
     inkscape:pageopacity="0.0"
     inkscape:pagecheckerboard="0"
     inkscape:deskcolor="#d1d1d1"
     inkscape:document-units="mm"
     inkscape:zoom="0.76078844"
     inkscape:cx="396.95661"
     inkscape:cy="350.9517"
     inkscape:window-width="1920"
     inkscape:window-height="1056"
     inkscape:window-x="0"
     inkscape:window-y="0"
     inkscape:window-maximized="1"
     inkscape:current-layer="layer1" /><defs
     id="defs1" /><g
     inkscape:label="Layer 1"
     inkscape:groupmode="layer"
     id="layer1"><g
       id="g3"
       transform="matrix(-17.638889,0,0,17.638889,155.75139,-20.725695)">

<path
   d="m 6.2478638,8.4810181 c -0.094299,0.094238 -0.2177124,0.1413574 -0.3411255,0.1413574 -0.1234131,0 -0.2468262,-0.047119 -0.3411255,-0.1413574 L 3.5189819,6.4343872 C 3.4247437,6.3400879 3.3775635,6.2166748 3.3775635,6.0932617 c 0,-0.1234131 0.04718,-0.2468872 0.1414185,-0.3411255 L 4.5422974,4.7288208 1.8134766,2 1.1312256,2.6821899 c -1.5083008,1.5083618 -1.5083008,3.9494019 0,5.4577026 l 2.7288818,2.7288205 c 0.3770752,0.377076 0.812439,0.659912 1.2769775,0.84845 C 5.6015625,11.905701 6.0952759,12 6.5889282,12 7.0826416,12 7.5762939,11.905701 8.0408325,11.717163 8.5053711,11.528626 8.9407348,11.245789 9.31781,10.868713 L 10,10.186523 7.2711792,7.4577026 Z"
   fill="#1d1d1b"
   id="path1" />

<path
   d="M 6.5,1 H 6 V 2 H 6.5 C 8.4296875,2 10,3.5703125 10,5.5 V 6 h 1 V 5.5 C 11,3.0185547 8.9814453,1 6.5,1 Z"
   fill="#1d1d1b"
   id="path2" />

<path
   d="M 8,5.5 V 6 H 9 V 5.5 C 9,4.121582 7.878418,3 6.5,3 H 6 V 4 H 6.5 C 7.3271484,4 8,4.6728516 8,5.5 Z"
   fill="#1d1d1b"
   id="path3" />

</g></g></svg>
